X:1
T:I’ve Anchored in Jesus
T:I’ve Anchored in Jesus
T:Lewis Edgar Jones
T:Lewis Edgar Jones, 1901
T:Public Domain Courtesy of the Cyber Hymnal™
T:Public Domain Courtesy of the Cyber Hymnal™
C:Lewis Edgar Jones
Z:Public Domain
Z:Courtesy of the Cyber Hymnal™
%%score ( 1 2 ) ( 3 4 )
L:1/8
Q:1/4=100
M:4/4
K:Bb
V:1 treble 
V:2 treble 
V:3 bass 
V:4 bass 
V:1
 [DF] | [DF][DF][B,D][DF] [DB]2 [DF][DF] | [EG][GB][GB][EG] [DF]3 [DF] | %3
w: 1.~Up-|on life’s bound- less o- cean where|might- y bil- lows roll, I’ve|
w: 2.~He|keeps my soul from e- vil and|gives me bless- èd peace, His|
w: 3.~He|is my Friend and Sav- ior, in|Him my an- chor’s cast, He|
 [DB][DB][DB][Ec] [Fd]2 [DB][Fd] | [=Ec][EB][FA][EG] F3 [_EF] | [DF][DF][B,D][DF] [DB]2 [DF][DF] | %6
w: fixed my hope in Je- sus, blest|an- chor of my soul; When|tri- als fierce as- sail me as|
w: voice hath stilled the wa- ters and|bid their tu- mult cease; My|Pi- lot and De- liv- erer, to|
w: drives a- way my sor- rows and|shields me from the blast; By|faith I’m look- ing up- ward be-|
 [EG][GB][GB][EG] [DF]3 [DF] | [DB][DB][DB][Ec] [Fd]2 [DB][Fd] | [Fd]2 [Ec]2 [DB]3 || %9
w: storms are ga- thering o’er, I|rest up- on His me- rcy and|trust Him more.|
w: Him I all con- fide, For|al- ways when I need Him, He’s|at my side.|
w: yond life’s trou- bled sea, There|I be- hold a ha- ven pre-|pared for me.|
"^Refrain" [DF] | [DB] [DB]2 [Ec] [Fd] [DB]2 [DF] | [EG][GB] [GB]>[EG] [DF]3 [DF] | %12
w: |||
w: I’ve|an- chored in Je- sus, the|storms of life I’ll brave, I’ve|
w: |||
 [DB] [FB]2 [Fc] [Fd] [DB]2 [DB] | [Fd][Fc] [Fc]>[F=B] [Fc]2 [Ed]2 | %14
w: ||
w: an- chored in Je- sus, I|fear no wind or wave. I’ve|
w: ||
 [DB] [DB]2 [Ec] [Fd] [DB]2 [DF] | [EG][GB] [GB]>[EG] [DF]3 [DF] | [DB][DB] [DB]>[Ec] [Fd]2 (Bd) | %17
w: |||
w: an- chored in Je- sus, for|He hath power to save, I’ve|an- chored to the Rock of *|
w: |||
 [Ec]4 [DB]3 |] %18
w: |
w: Ag- es.|
w: |
V:2
 x | x8 | x8 | x8 | x4 F3 x | x8 | x8 | x8 | x7 || x | x8 | x8 | x8 | x8 | x8 | x8 | x6 F2 | x7 |] %18
V:3
 [B,,B,] | [B,,B,][B,,B,][B,,F,][B,,F,] [B,,F,]2 [B,,B,][B,,B,] | %2
 [E,B,][E,B,][E,B,][E,B,] [B,,B,]3 [B,,B,] | [B,,F,][B,,F,][B,,F,][B,,F,] [B,,B,]2 [B,,B,][B,,B,] | %4
 [C,G,][C,G,][C,C][C,B,] [F,A,]3 [F,A,] | [B,,B,][B,,B,][B,,F,][B,,F,] [B,,F,]2 [B,,B,][B,,B,] | %6
 [E,B,][E,B,][E,B,][E,B,] [B,,B,]3 [B,,B,] | [B,,F,][B,,F,][B,,F,][B,,F,] [B,,B,]2 [B,,B,][B,,B,] | %8
 [F,B,]2 [F,A,]2 [B,,B,]3 || [B,,B,] | [B,,F,] [B,,F,]2 [B,,F,] [B,,B,] [B,,B,]2 [B,,B,] | %11
 [E,B,][E,B,]3/2[E,B,][E,B,]/ [B,,B,]3 [B,,B,] | [B,,B,] [D,B,]2 [F,A,] B, B,2 B, | %13
 [F,B,][F,A,] [F,A,]>[F,^G,] [F,A,]2 [F,A,]2 | [B,,B,] [B,,F,]2 [B,,F,] [B,,B,] [B,,B,]2 [B,,B,] | %15
 [E,B,][E,B,] [E,B,]>[E,B,] [B,,B,]3 [B,,B,] | [F,B,]F, F,>F, [F,B,]2 (DB,) | [F,A,]4 [B,,B,]3 |] %18
V:4
 x | x8 | x8 | x8 | x8 | x8 | x8 | x8 | x7 || x | x8 | x8 | x4 B, B,2 B, | x8 | x8 | x8 | x6 F,2 | %17
 x7 |] %18

